X:1
T:Engelska i A efter Alfred Pettersson
O:Nättraby, Blekinge
R:Engelska
M:4/4
L:1/8
Z:Andy Davey 2019
K:D
|: Adcd Adcd | Adcd B2G2 | GBBB GBBB | GBdB B2 A2 | Adcd Adcd | Adcd B2G2 | GABc dAGF | E2 D2 D4 :| 
|: FAAA FAAA | FAAA BAGF | GBBB GBBB | GBdB B2 A2 | FAAA FAAA | FAAA BAGF | GABc dAGF | E2 D2 D4 :|

